!!!OTL: AUF DEM KIRCHHOF
!!!ARE: Europa, Mitteleuropa, Deutschland
!!!SCT: E0413B
!!!YEM: Copyright 1995, estate of Helmut Schaffrath.
**kern
*ICvox
*Ivox
*M2/4
*k[]
*a:
{16e
16fn
=1
8gn
8gn
8a
8a
=2
8gn
16a
16b
8ccn
8r}
=3
{8.e
16fn
8gn
16b
16gn
=4
8e
8cn
8r}
{8e
=5
8e
8e
8f#
8g#
=6
8.a
16b
8ccn}
{16ccn
16dd
=7
8ee
16ccn
16dd
16ee
16ccn
16ee
16ccn
=8
4.dd}
{16a
16b
=9
8ccn
16ccn
16ccn
8b
8ccn
=10
4.a}
==
!!!AGN: Liebes - Lied
!!!ONB: ESAC (Essen Associative Code) Database: ERK1
!!!AMT: simple duple
!!!AIN: vox
!!!EED: Helmut Schaffrath
!!!EEV: 1.0
*-
